icons/glyphs/glyph-ms-visio.svg

<?xml version="1.0" encoding="UTF-8" standalone="no"?><svg height="16mm" viewBox="0 0 16 16" width="16mm" xmlns="http://www.w3.org/2000/svg"><sodipodi:namedview/><metadata><rdf:RDF><cc:Work><dc:format>image/svg+xml</dc:format><dc:type/><dc:title/></cc:Work></rdf:RDF></metadata><path d="m35.535156 0-35.20507788 6.8144531v46.2773439l35.20507788 7.380859v-10.201172h24.398438v-12.099609h-12.541016v-8.689453l12.953125-8.642578-13.703125-9.146485-11.107422 7.41211zm-9.998047 18.681641-6.986328 22.023437-2.953125-.015625-7.0683591-20.359375 3.1289061-.246094 4.945313 14.857422 4.771484-15.957031zm9.998047 3.890625 10.357422 6.910156v8.689453h-10.357422z" fill="#d0d0d0" stroke-width=".579719" transform="scale(.26458333)"/></svg>

<?xml version="1.0" encoding="UTF-8" standalone="no"?>
<!-- Created with Inkscape (http://www.inkscape.org/) -->

<svg
     xmlns:dc="http://purl.org/dc/elements/1.1/"
     xmlns:cc="http://creativecommons.org/ns#"
     xmlns:rdf="http://www.w3.org/1999/02/22-rdf-syntax-ns#"
     xmlns:svg="http://www.w3.org/2000/svg"
     xmlns="http://www.w3.org/2000/svg"
     xmlns:sodipodi="http://sodipodi.sourceforge.net/DTD/sodipodi-0.dtd"
     xmlns:inkscape="http://www.inkscape.org/namespaces/inkscape"
     width="16mm"
     height="16mm"
     viewBox="0 0 16 16"
     version="1.1"
     id="svg8"
     inkscape:version="0.92+devel (78cebbf91a, 2017-07-21, custom)"
     sodipodi:docname="glyph-visio.svg">
    <defs
         id="defs2" />
    <sodipodi:namedview
         id="base"
         pagecolor="#002466"
         bordercolor="#ffffff"
         borderopacity="0.38039216"
         inkscape:pageopacity="1"
         inkscape:pageshadow="2"
         inkscape:zoom="7.1685545"
         inkscape:cx="30.23622"
         inkscape:cy="30.23622"
         inkscape:document-units="mm"
         inkscape:current-layer="svg8"
         inkscape:document-rotation="0"
         showgrid="false"
         inkscape:showpageshadow="false"
         borderlayer="true"
         inkscape:window-width="1920"
         inkscape:window-height="1051"
         inkscape:window-x="0"
         inkscape:window-y="0"
         inkscape:window-maximized="1" />
    <metadata
         id="metadata5">
        <rdf:RDF>
            <cc:Work
                 rdf:about="">
                <dc:format>image/svg+xml</dc:format>
                <dc:type
                     rdf:resource="http://purl.org/dc/dcmitype/StillImage" />
                <dc:title></dc:title>
            </cc:Work>
        </rdf:RDF>
    </metadata>
    <path
         style="fill:#d0d0d0;stroke-width:0.57971925"
         d="M 35.535156 0 L 0.33007812 6.8144531 L 0.33007812 53.091797 L 35.535156 60.472656 L 35.535156 50.271484 L 59.933594 50.271484 L 59.933594 38.171875 L 47.392578 38.171875 L 47.392578 29.482422 L 60.345703 20.839844 L 46.642578 11.693359 L 35.535156 19.105469 L 35.535156 0 z M 25.537109 18.681641 L 18.550781 40.705078 L 15.597656 40.689453 L 8.5292969 20.330078 L 11.658203 20.083984 L 16.603516 34.941406 L 21.375 18.984375 L 25.537109 18.681641 z M 35.535156 22.572266 L 45.892578 29.482422 L 45.892578 38.171875 L 35.535156 38.171875 L 35.535156 22.572266 z "
         transform="scale(0.26458333)"
         id="path3"
         inkscape:label="#" />
</svg>
